X: 21978
T: Kitty McKenzie's
R: reel
M: 4/4
K: Dmixolydian
d^cde =cA~A2|BG~G2 BAB^c|d2ed =cA~A2|GBAG FD~D2|
d^cde =cA~A2|BGEF GAB^c|d^cdf gbaf|1 ged^c AB=cA:|2 ge^cd e=ceg||
|:fa~a2 ge^cA|dfed AB=cA|BG~G2 BABd|^cA~A2 ^cdeg|
fa~a2 ge^cA|dfed efga|bgeb af~f2|1 ge^cd e=ceg:|2 ged^c AB=cA||

